X:1
T:Title
%%score { 1 | 2 }
L:1/8
M:3/2
K:Ab
V:1 treble nm="Grand Piano"
V:2 bass 
V:1
 z4 z4[Q:1/4=128] [Ec]4 | [CA]2 [CA]2 [DF]4 [CE]4 | A2 B2 c4 [Ec]4 | [EB]2 [EA]2 [Ed]4 [Ec]4 | %4
 [EB]8 [Ec]4 | [CA]2 [CA]2 [DF]4 [CE]4 | A2 B2 c4 c4 | B2 A2 [B,FA]4 [B,EG]4 |[M:4/4] [CEA]8 | %9
[M:2/4] c4 |[M:6/4] e2 e2 c2- c2 [CA]4 | [Ec]2 [Ec]2 [FA]2- [FA]2 [DF]4 | [CE]2 [CE]2 A2- A2 A4 | %13
 B6- B2 c4 | e2 e2 c2- c2 [CA]4 | [Ec]2 [Ec]2 [FA]2- [FA]2 F4 | E2 E2 A2- A2 G4 |[M:4/4] [CEA]8 |] %18
V:2
 z4 z4 [A,,A,]4 | [A,,A,]2 [A,,A,]2 [A,,A,]4 [A,,A,]4 | [F,A,C]2 [E,G,E]2 [A,E]4 [A,,A,]4 | %3
 [D,G,]2 [C,A,]2 [B,,G,]4 [A,,A,]4 | [E,G,]8 [A,,A,]4 | [A,,A,]2 [A,,A,]2 [A,,A,]4 [A,,A,]4 | %6
 [F,A,C]2 [E,G,E]2 [A,E]4 [A,E]4 | [E,A,D]2 [F,A,C]2 D,4 E,4 |[M:4/4] A,,8 |[M:2/4] [B,E]4 | %10
[M:6/4] [A,CE]2 [A,CE]2 [B,E]2- [B,E]2 [A,,A,]4 | [A,,A,]2 [A,,A,]2 [D,A,]2- [D,A,]2 [D,A,]4 | %12
 [A,,A,]2 [A,,A,]2 [F,A,C]2- [F,A,C]2 [F,A,C]4 | [E,G,E]6- [E,G,E]2 [A,E]4 | %14
 [A,CE]2 [A,CE]2 [A,E]2- [A,E]2 [A,,A,]4 | [A,,A,]2 [A,,A,]2 [D,B,]2- [D,B,]2 [D,B,D]4 | %16
 [E,A,C]2 [E,A,C]2 [E,CE]2- [E,CE]2 [E,B,E]4 |[M:4/4] A,,8 |] %18

